X:296
T:score93
L:1/8
Q:1/4=96
M:6/8
I:linebreak $
K:Ab
 c2 c (cde) | (e3 G3) | B2 B (Bcd) | c3- c2 z |$ (.c.c.c) (cde) | (e3 F2) F | (BFG) A2 (A/G/) | %7
 G3- G2 z |] %8
